X: 1
T: Crossroads, The
M: 4/4
L: 1/8
R: reel
K: Edor
|EFGEF2ED|EFGABEED|EFGEF3G|1 AdfedBAF:|2 AdfedABd||
|~e3f~g3f|efgefedf|edefg3b|afbafedf|
~e3f ~g3f|efgeafef|dBcABAFG |1 AdfedABd:|2 AdfedBAF:||
